X:47
T:Tune for Karen
C:Cammy Kaynor
M:4/4
R:reel
Q:1/2=120
L:1/8
K:Dm
"A7"a2|"Dm"fed2 A2 d2|"Gm"BAG2 E3G|"A7"FGA2 GAB2|"Dm"AGFED2"A7"a2|
"Dm"fed2 A2 d2|"Gm"BAG2 E3G|"A7"FGA2 GFE2|"Dm" D4 D2::
C2|"F"C2F2F2A2|"C7"G2c2c4|"F"f2c2"C7"d2cB|"F"AGFA "C7"G2C2|
"F"F2A2A2c2|"G7"=Bcd2 g3f|"C"edc2 "G7"G2=B2|"C"c4c2:|
